X: 25621
T: Marshmallows
R: slide
M: 12/8
K: Gmajor
|:D|G2 B G2 B GBc dAG|F2 A F2 A DFA cBA|
[1 GBB GBB G2 B d2 B|c2 A FAd B2 A G2:|
[2 G2 B GBB GB/c/d g2 d|c2 A d^cd B2 d G2||
|:d|gfe dBG B2 c d3|gfe dBG c2 B A3|
gg/f/e dBG B2 c d2 B|1 cdc AFd B2 d G2:|2 c2 A FAd B2 A G2||

